X:283
T: AN DER WEICHSEL GEGEN OSTEN
N: E1427
O: Europa, Mitteleuropa, Deutschland, Hessen; Rheinland
R: Staende -, Soldaten - Lied
M: 3/4
L: 1/16
K: F
F3F | F4C4A3A | A4F4z2
C2 | F2C2F2C2F2d2 | d2c2c2
c2d2c2 | B2G2B4c2B2 | A2F2A4
A3A | B2B2B2B2c3B | A4z2
c2d2c2 | B2G2B4c2B2 | A2F2A4
A3A | B2B2B2B2c3B | A4z4

